!!!COM: Mozart, Wolfgang Amadeus
!!!OPR: Symphony in D Major
!!!OTL: Menuetto
!!!OMV: 3
!!!SCT: K 385
!!!SCA: Chronologisch-thematisches Verzeichnis sämtlicher Tonwerke Wolfgang Amade Mozarts (L. von Köchel; 1862, 2/1905, 3/1937, 1947)
!!!YOR: Breitkopf & Härtel Edition
!!!EED: Edmund Correia, Jr.
!!!ENC: Edmund Correia, Jr.
!!!CDT: 1756/1/27/-1791/12/5/
!!!OCY: Österreich
!!!YEC: Copyright (c) 1994, 2000 Center for Computer Assisted Research in the Humanities
!!!YEM: Rights to all derivative editions reserved.
!!!YEM: Refer to licensing agreement for further details.
!!!YEN: United States of America
**kern	**dynam	**kern	**dynam	**kern	**dynam	**kern	**dynam	**kern	**dynam	**kern	**dynam	**kern	**dynam	**kern	**dynam	**kern	**dynam
*I:Oboi	*I:Oboi	*I:Fagotti	*I:Fagotti	*I:Corni in D	*I:Corni in D	*I:Trombe in D	*I:Trombe in D	*I:Timpani in D, A	*I:Timpani in D, A	*I:Violino 1	*I:Violino 1	*I:Violino 2	*I:Violino 2	*I:Viola	*I:Viola	*I:Violoncello e Basso	*I:Violoncello e Basso
*>[A,A,B,B,C,C,D,D,E]	*	*>[A,A,B,B,C,C,D,D,E]	*	*>[A,A,B,B,C,C,D,D,E]	*	*>[A,A,B,B,C,C,D,D,E]	*	*>[A,A,B,B,C,C,D,D,E]	*	*>[A,A,B,B,C,C,D,D,E]	*	*>[A,A,B,B,C,C,D,D,E]	*	*>[A,A,B,B,C,C,D,D,E]	*	*>[A,A,B,B,C,C,D,D,E]	*
*>A	*	*>A	*	*>A	*	*>A	*	*>A	*	*>A	*	*>A	*	*>A	*	*>A	*
*clefG2	*	*clefF4	*	*clefG2	*	*clefG2	*	*clefF4	*	*clefG2	*	*clefG2	*	*clefC3	*	*clefF4	*
*k[f#c#]	*	*k[f#c#]	*	*k[]	*	*k[]	*	*ITrd1c2	*ITrd1c2	*k[f#c#]	*	*k[f#c#]	*	*k[f#c#]	*	*k[f#c#]	*
*D:	*	*D:	*	*D:	*	*D:	*	*k[f#c#]	*	*D:	*	*D:	*	*D:	*	*D:	*
*M3/4	*	*M3/4	*	*M3/4	*	*M3/4	*	*D/b:	*	*M3/4	*	*M3/4	*	*M3/4	*	*M3/4	*
*tb16	*	*tb16	*	*tb16	*	*tb16	*	*M3/4	*	*tb16	*	*tb16	*	*tb16	*	*tb16	*
*	*	*	*	*	*	*	*	*tb16	*	*	*	*	*	*	*	*	*
=1-	=1-	=1-	=1-	=1-	=1-	=1-	=1-	=1-	=1-	=1-	=1-	=1-	=1-	=1-	=1-	=1-	=1-
*^	*	*	*	*^	*	*^	*	*	*	*	*	*	*	*	*	*	*
!	!	!	! a 2	!	!	!	!	!	!	!	!	!	!	!	!	!	!	!	!	!
[2.a/	[2.f#\	f	4D\	f	4c/	4c\	f	4c/	4c\	f	2.DT/	f	[2.dd/ [2.d/	f	[2.dd/ [2.d/	f	4d\	f	4D\	f
.	.	.	4F#\	.	4e/	4e\	.	4e/	4e\	.	.	.	.	.	.	.	4f#\	.	4F#\	.
.	.	.	4A\	.	4g/	4g\	.	4g/	4g\	.	.	.	.	.	.	.	4a\	.	4A\	.
=2	=2	=2	=2	=2	=2	=2	=2	=2	=2	=2	=2	=2	=2	=2	=2	=2	=2	=2	=2	=2
4a/]	4f#\]	.	4d\	.	4cc/	4cc\	.	4cc/	4cc\	.	4D/	.	8dd/ 8d/L]	.	8dd/ 8d/L]	.	4dd\	.	4d\	.
.	.	.	.	.	.	.	.	.	.	.	.	.	8d/	.	8d/	.	.	.	.	.
4r	4r	.	4r	.	4r	4r	.	4r	4r	.	4r	.	8f#/	.	8f#/	.	4r	.	4r	.
.	.	.	.	.	.	.	.	.	.	.	.	.	8a/	.	8a/	.	.	.	.	.
4r	4r	.	4r	.	4r	4r	.	4r	4r	.	4r	.	8dd/	.	8dd/	.	4r	.	4r	.
.	.	.	.	.	.	.	.	.	.	.	.	.	8ff#/J	.	8ff#/J	.	.	.	.	.
=3	=3	=3	=3	=3	=3	=3	=3	=3	=3	=3	=3	=3	=3	=3	=3	=3	=3	=3	=3	=3
4r	4r	.	4r	.	4r	4r	.	4r	4r	.	4r	.	4aa\	.	4aa\	.	4r	.	4r	.
4ff#/	4dd\	.	4D\	.	4ee/	4cc\	.	4c/	4c\	.	4D/	.	4ddd\ 4ff#\ 4a\	.	4ddd\ 4ff#\ 4a\	.	4d\	.	4D\	.
4ff#/	4dd\	.	4F#\	.	4ee/	4cc\	.	4e/	4e\	.	4D/	.	4ddd\ 4ff#\ 4a\	.	4ddd\ 4ff#\ 4a\	.	4f#\	.	4F#\	.
=4	=4	=4	=4	=4	=4	=4	=4	=4	=4	=4	=4	=4	=4	=4	=4	=4	=4	=4	=4	=4
4ee/	4cc#\	.	4A\	.	4dd/	4g\	.	4g/	4g\	.	4AA/	.	4ccc#\ 4ee\ 4a\	.	4ccc#\ 4ee\ 4a\	.	4a\	.	4A\	.
4r	4r	.	4r	.	4r	4r	.	4r	4r	.	4r	.	4r	.	4r	.	4r	.	4r	.
4r	4r	.	4r	.	4r	4r	.	4r	4r	.	4r	.	4r	.	4r	.	4r	.	4r	.
=5	=5	=5	=5	=5	=5	=5	=5	=5	=5	=5	=5	=5	=5	=5	=5	=5	=5	=5	=5	=5
!	!	!	!	!	!	!	!	!	!	!	!	!	! 16bP/	!	!	!	!	!	!	!
2.r	2.r	.	[2.G\	p	2.r	2.r	.	2.r	2.r	.	2.r	.	[2.bbp\	p	[2.b\	p	4r	.	[2.G\	p
.	.	.	.	.	.	.	.	.	.	.	.	.	.	.	.	.	(4d\	p	.	.
.	.	.	.	.	.	.	.	.	.	.	.	.	.	.	.	.	4d#\	.	.	.
=6	=6	=6	=6	=6	=6	=6	=6	=6	=6	=6	=6	=6	=6	=6	=6	=6	=6	=6	=6	=6
2.r	2.r	.	4G\]	.	2.r	2.r	.	2.r	2.r	.	2.r	.	4bb\]	.	4b\]	.	4e\)	.	4G\]	.
.	.	.	4r	.	.	.	.	.	.	.	.	.	(16aa\LK	.	(16a/LK	.	4r	.	4r	.
.	.	.	.	.	.	.	.	.	.	.	.	.	8.gg\J)	.	8.g/J)	.	.	.	.	.
.	.	.	4r	.	.	.	.	.	.	.	.	.	(16ff#\LK	.	(16f#/LK	.	4r	.	4r	.
.	.	.	.	.	.	.	.	.	.	.	.	.	8.ee\J)	.	8.e/J)	.	.	.	.	.
=7	=7	=7	=7	=7	=7	=7	=7	=7	=7	=7	=7	=7	=7	=7	=7	=7	=7	=7	=7	=7
2.r	2.r	.	4A\	.	2.r	2.r	.	2.r	2.r	.	2.r	.	(16dd\LK	.	(16d/LK	.	4g\ 4e\	.	4A\	.
.	.	.	.	.	.	.	.	.	.	.	.	.	8.cc#\J)	.	8.c#/J)	.	.	.	.	.
.	.	.	4A\	.	.	.	.	.	.	.	.	.	(16b/LK	.	(16B/LK	.	4g\ 4e\	.	4A\	.
.	.	.	.	.	.	.	.	.	.	.	.	.	8.a/J)	.	8.A/J)	.	.	.	.	.
.	.	.	4A\	.	.	.	.	.	.	.	.	.	(16b\LK	.	(16B/LK	.	4g\ 4e\	.	4A\	.
.	.	.	.	.	.	.	.	.	.	.	.	.	8.cc#\J)	.	8.c#/J)	.	.	.	.	.
=8	=8	=8	=8	=8	=8	=8	=8	=8	=8	=8	=8	=8	=8	=8	=8	=8	=8	=8	=8	=8
2.r	2.r	.	4d\	.	2.r	2.r	.	2.r	2.r	.	2.r	.	4dd\	.	4d/	.	4f#\ 4d\	.	4d\	.
.	.	.	4A\	.	.	.	.	.	.	.	.	.	4r	.	4r	.	4r	.	4A\	.
.	.	.	4D\	.	.	.	.	.	.	.	.	.	4r	.	4r	.	4r	.	4F#\	.
=9:!!:	=9:!!:	=9:!!:	=9:!!:	=9:!!:	=9:!!:	=9:!!:	=9:!!:	=9:!!:	=9:!!:	=9:!!:	=9:!!:	=9:!!:	=9:!!:	=9:!!:	=9:!!:	=9:!!:	=9:!!:	=9:!!:	=9:!!:	=9:!!:
*>B	*	*	*>B	*	*>B	*	*	*>B	*	*	*>B	*	*>B	*	*>B	*	*>B	*	*>B	*
[2.gg/	[2.ee\	f	4AA'/	f	4dd/	4g\	f	4g/	4g\	f	4AA/	f	4a/	f	(8a\L	f	4A'/	f	4AA'/	f
.	.	.	.	.	.	.	.	.	.	.	.	.	.	.	8ee\)	.	.	.	.	.
.	.	.	4C#'/	.	4dd/	4g\	.	4g/	4g\	.	4AA/	.	[2gg\	.	8ee\ 8cc#\	.	4c#'\	.	4C#'/	.
.	.	.	.	.	.	.	.	.	.	.	.	.	.	.	8ee\ 8cc#\	.	.	.	.	.
.	.	.	4E'\	.	4dd/	4g\	.	4g/	4g\	.	4AA/	.	.	.	8ee\ 8cc#\	.	4e'\	.	4E'\	.
.	.	.	.	.	.	.	.	.	.	.	.	.	.	.	8ee\ 8cc#\J	.	.	.	.	.
=10	=10	=10	=10	=10	=10	=10	=10	=10	=10	=10	=10	=10	=10	=10	=10	=10	=10	=10	=10	=10
4gg/]	4ee\]	.	4A'\	.	4dd/	4g\	.	4g/	4g\	.	4AA/	.	4gg\]	.	(8a\L	.	4a'\	.	4A'\	.
.	.	.	.	.	.	.	.	.	.	.	.	.	.	.	8gg\ 8ee\)	.	.	.	.	.
4ee'/	4cc#\	.	4r	.	4r	4r	.	4r	4r	.	4r	.	4ee'\	.	8gg\ 8ee\	.	4r	.	4r	.
.	.	.	.	.	.	.	.	.	.	.	.	.	.	.	8gg\ 8ee\	.	.	.	.	.
4cc#/	4g'\	.	4r	.	4r	4r	.	4r	4r	.	4r	.	4ccc#'\	.	8gg\ 8ee\	.	4r	.	4r	.
.	.	.	.	.	.	.	.	.	.	.	.	.	.	.	8gg\ 8ee\J	.	.	.	.	.
=11	=11	=11	=11	=11	=11	=11	=11	=11	=11	=11	=11	=11	=11	=11	=11	=11	=11	=11	=11	=11
[2.aaz/	[2.ff#\	z	4D'\	.	4ee/	4cc\	.	4g/	4g\	.	4D/	.	4a/	.	(8a\L	.	4d'\	.	4D'\	.
.	.	.	.	.	.	.	.	.	.	.	.	.	.	.	8ff#\ 8dd\)	.	.	.	.	.
.	.	.	4F#'\	.	4ee/	4cc\	.	4g/	4g\	.	4D/	.	[2aaz\	z	8ff#\ 8dd\	.	4f#'\	.	4F#'\	.
.	.	.	.	.	.	.	.	.	.	.	.	.	.	.	8ff#\ 8dd\	.	.	.	.	.
.	.	.	4A'\	.	4ee/	4cc\	.	4g/	4g\	.	4D/	.	.	.	8ff#\ 8dd\	.	4a'\	.	4A'\	.
.	.	.	.	.	.	.	.	.	.	.	.	.	.	.	8ff#\ 8dd\J	.	.	.	.	.
=12	=12	=12	=12	=12	=12	=12	=12	=12	=12	=12	=12	=12	=12	=12	=12	=12	=12	=12	=12	=12
4aa/]	4ff#\]	.	4d\	.	4ee/	4cc\	.	4g/	4g\	.	4D/	.	4aa\]	.	(8a\L	.	4dd\	.	4d\	.
.	.	.	.	.	.	.	.	.	.	.	.	.	.	.	8ff#\ 8dd\)	.	.	.	.	.
4ff#'/	4dd\	.	4r	.	4r	4r	.	4r	4r	.	4r	.	4ff#'\	.	8ff#\ 8dd\	.	4r	.	4r	.
.	.	.	.	.	.	.	.	.	.	.	.	.	.	.	8ff#\ 8dd\	.	.	.	.	.
4dd'/	4a\	.	4r	.	4r	4r	.	4r	4r	.	4r	.	4ddd'\	.	8ff#\ 8dd\	.	4r	.	4r	.
.	.	.	.	.	.	.	.	.	.	.	.	.	.	.	8ff#\ 8dd\J	.	.	.	.	.
=13	=13	=13	=13	=13	=13	=13	=13	=13	=13	=13	=13	=13	=13	=13	=13	=13	=13	=13	=13	=13
2.r	2.r	.	4B\	p	2.r	2.r	.	2.r	2.r	.	2.r	.	4r	.	4dd\	p	4b\	p	4B\	p
.	.	.	4r	.	.	.	.	.	.	.	.	.	(4ddd\	p	4r	.	4r	.	4r	.
.	.	.	4r	.	.	.	.	.	.	.	.	.	4bb\)	.	4r	.	4r	.	4r	.
=14	=14	=14	=14	=14	=14	=14	=14	=14	=14	=14	=14	=14	=14	=14	=14	=14	=14	=14	=14	=14
2.r	2.r	.	4r	.	2.r	2.r	.	2.r	2.r	.	2.r	.	(4aa\	.	4r	.	4r	.	4r	.
.	.	.	4B\	.	.	.	.	.	.	.	.	.	4gg#\)	.	4dd\	.	4b\	.	4B\	.
.	.	.	4B\	.	.	.	.	.	.	.	.	.	4r	.	4dd\	.	4b\	.	4B\	.
=15	=15	=15	=15	=15	=15	=15	=15	=15	=15	=15	=15	=15	=15	=15	=15	=15	=15	=15	=15	=15
2.r	2.r	.	4r	.	2.r	2.r	.	2.r	2.r	.	2.r	.	4dd'\	.	4r	.	4r	.	4r	.
.	.	.	4B\	.	.	.	.	.	.	.	.	.	4dd'\	.	4g#/	.	4d\	.	4B\	.
.	.	.	4B\	.	.	.	.	.	.	.	.	.	8r	.	4g#/	.	4d\	.	4B\	.
.	.	.	.	.	.	.	.	.	.	.	.	.	8cc#\	.	.	.	.	.	.	.
=16	=16	=16	=16	=16	=16	=16	=16	=16	=16	=16	=16	=16	=16	=16	=16	=16	=16	=16	=16	=16
2.r	2.r	.	4r	.	2.r	2.r	.	2.r	2.r	.	2.r	.	(4ff#\	.	4r	.	4r	.	4r	.
.	.	.	8A\L	.	.	.	.	.	.	.	.	.	4ee\)	.	(4a/	.	(4c#\	.	8A\L	.
.	.	.	8F#\	.	.	.	.	.	.	.	.	.	.	.	.	.	.	.	8F#\	.
.	.	.	8G\	.	.	.	.	.	.	.	.	.	4r	.	4cc#\)	.	4e\)	.	8G\	.
.	.	.	8E\J	.	.	.	.	.	.	.	.	.	.	.	.	.	.	.	8E\J	.
=17	=17	=17	=17	=17	=17	=17	=17	=17	=17	=17	=17	=17	=17	=17	=17	=17	=17	=17	=17	=17
[2.a/	[2.f#\	f	4D\	f	4c/	4c\	f	4c/	4c\	f	2.DT/	f	[2.dd/ [2.d/	f	[2.dd/ [2.d/	f	4d\	f	4D\	f
.	.	.	4F#\	.	4e/	4e\	.	4e/	4e\	.	.	.	.	.	.	.	4f#\	.	4F#\	.
.	.	.	4A\	.	4g/	4g\	.	4g/	4g\	.	.	.	.	.	.	.	4a\	.	4A\	.
=18	=18	=18	=18	=18	=18	=18	=18	=18	=18	=18	=18	=18	=18	=18	=18	=18	=18	=18	=18	=18
4a/]	4f#\]	.	4d\	.	4cc/	4cc\	.	4cc/	4cc\	.	4D/	.	8dd/ 8d/L]	.	8dd/ 8d/L]	.	4dd\	.	4d\	.
.	.	.	.	.	.	.	.	.	.	.	.	.	8d/	.	8d/	.	.	.	.	.
4r	4r	.	4r	.	4r	4r	.	4r	4r	.	4r	.	8f#/	.	8f#/	.	4r	.	4r	.
.	.	.	.	.	.	.	.	.	.	.	.	.	8a/	.	8a/	.	.	.	.	.
4r	4r	.	4r	.	4r	4r	.	4r	4r	.	4r	.	8dd/	.	8dd/	.	4r	.	4r	.
.	.	.	.	.	.	.	.	.	.	.	.	.	8ff#/J	.	8ff#/J	.	.	.	.	.
=19	=19	=19	=19	=19	=19	=19	=19	=19	=19	=19	=19	=19	=19	=19	=19	=19	=19	=19	=19	=19
4r	4r	.	4r	.	4r	4r	.	4r	4r	.	4r	.	4aa\	.	4aa\	.	4r	.	4r	.
4ff#/	4dd\	.	4D\	.	4ee/	4cc\	.	4c/	4c\	.	4D/	.	4ddd\ 4ff#\ 4a\	.	4ddd\ 4ff#\ 4a\	.	4d\	.	4D\	.
4ff#/	4dd\	.	4F#\	.	4ee/	4cc\	.	4e/	4e\	.	4D/	.	4ddd\ 4ff#\ 4a\	.	4ddd\ 4ff#\ 4a\	.	4f#\	.	4F#\	.
=20	=20	=20	=20	=20	=20	=20	=20	=20	=20	=20	=20	=20	=20	=20	=20	=20	=20	=20	=20	=20
4ee/	4cc#\	.	4A\	.	4dd/	4g\	.	4g/	4g\	.	4AA/	.	4ccc#\ 4ee\ 4a\	.	4ccc#\ 4ee\ 4a\	.	4a\	.	4A\	.
4r	4r	.	4r	.	4r	4r	.	4r	4r	.	4r	.	4r	.	4r	.	4r	.	4r	.
4r	4r	.	4r	.	4r	4r	.	4r	4r	.	4r	.	4r	.	4r	.	4r	.	4r	.
=21	=21	=21	=21	=21	=21	=21	=21	=21	=21	=21	=21	=21	=21	=21	=21	=21	=21	=21	=21	=21
!	!	!	!	!	!	!	!	!	!	!	!	!	! 16bP/	!	!	!	!	!	!	!
2.r	2.r	.	[2.G\	p	2.r	2.r	.	2.r	2.r	.	2.r	.	[2.bbp\	p	[2.b\	p	4r	.	[2.G\	p
.	.	.	.	.	.	.	.	.	.	.	.	.	.	.	.	.	(4d\	p	.	.
.	.	.	.	.	.	.	.	.	.	.	.	.	.	.	.	.	4d#\	.	.	.
=22	=22	=22	=22	=22	=22	=22	=22	=22	=22	=22	=22	=22	=22	=22	=22	=22	=22	=22	=22	=22
2.r	2.r	.	4G\]	.	2.r	2.r	.	2.r	2.r	.	2.r	.	4bb\]	.	4b\]	.	4e\)	.	4G\]	.
.	.	.	4r	.	.	.	.	.	.	.	.	.	(16aa\LK	.	(16a/LK	.	4r	.	4r	.
.	.	.	.	.	.	.	.	.	.	.	.	.	8.gg\J)	.	8.g/J)	.	.	.	.	.
.	.	.	4r	.	.	.	.	.	.	.	.	.	(16ff#\LK	.	(16f#/LK	.	4r	.	4r	.
.	.	.	.	.	.	.	.	.	.	.	.	.	8.ee\J)	.	8.e/J)	.	.	.	.	.
=23	=23	=23	=23	=23	=23	=23	=23	=23	=23	=23	=23	=23	=23	=23	=23	=23	=23	=23	=23	=23
2.r	2.r	.	4A\	.	2.r	2.r	.	2.r	2.r	.	2.r	.	(16dd\LK	.	(16d/LK	.	4g\ 4e\	.	4A\	.
.	.	.	.	.	.	.	.	.	.	.	.	.	8.cc#\J)	.	8.c#/J)	.	.	.	.	.
.	.	.	4A\	.	.	.	.	.	.	.	.	.	(16b/LK	.	(16B/LK	.	4g\ 4e\	.	4A\	.
.	.	.	.	.	.	.	.	.	.	.	.	.	8.a/J)	.	8.A/J)	.	.	.	.	.
.	.	.	4A\	.	.	.	.	.	.	.	.	.	(16b\LK	.	(16B/LK	.	4g\ 4e\	.	4A\	.
.	.	.	.	.	.	.	.	.	.	.	.	.	8.cc#\J)	.	8.c#/J)	.	.	.	.	.
=24	=24	=24	=24	=24	=24	=24	=24	=24	=24	=24	=24	=24	=24	=24	=24	=24	=24	=24	=24	=24
2.r	2.r	.	4d\	.	2.r	2.r	.	2.r	2.r	.	2.r	.	4dd\	.	4d/	.	4f#\ 4d\	.	4d\	.
.	.	.	4A\	.	.	.	.	.	.	.	.	.	4r	.	4r	.	4r	.	4A\	.
.	.	.	4D\	.	.	.	.	.	.	.	.	.	4r	.	4r	.	4r	.	4D\	.
=25:!!:	=25:!!:	=25:!!:	=25:!!:	=25:!!:	=25:!!:	=25:!!:	=25:!!:	=25:!!:	=25:!!:	=25:!!:	=25:!!:	=25:!!:	=25:!!:	=25:!!:	=25:!!:	=25:!!:	=25:!!:	=25:!!:	=25:!!:	=25:!!:
*>C	*	*	*	*	*>C	*	*	*>C	*	*	*>C	*	*>C	*	*>C	*	*>C	*	*>C	*
*k[f#c#g#]	*	*	*	*	*M3/4	*	*	*M3/4	*	*	*M3/4	*	*k[f#c#g#]	*	*k[f#c#g#]	*	*k[f#c#g#]	*	*k[f#c#g#]	*
*A:	*	*	*	*	*	*	*	*	*	*	*	*	*A:	*	*A:	*	*A:	*	*A:	*
*M3/4	*	*	*	*	*	*	*	*	*	*	*	*	*M3/4	*	*M3/4	*	*M3/4	*	*M3/4	*
! Trio	!	!	!	!	! Trio	!	!	! Trio	!	!	! Trio	!	! Trio	!	! Trio	!	! Trio	!	! Trio	!
*	*	*	*^	*	*	*	*	*	*	*	*	*	*	*	*	*	*	*	*	*
*	*	*	*>C	*	*	*	*	*	*	*	*	*	*	*	*	*	*	*	*	*	*
*	*	*	*k[f#c#g#]	*	*	*	*	*	*	*	*	*	*	*	*	*	*	*	*	*	*
*	*	*	*A/f#:	*	*	*	*	*	*	*	*	*	*	*	*	*	*	*	*	*	*
*	*	*	*M3/4	*	*	*	*	*	*	*	*	*	*	*	*	*	*	*	*	*	*
!	!	!	! Trio	!	!	!	!	!	!	!	!	!	!	!	!	!	!	!	!	!	!
!	!	!	!	!	!	!	!	!	!	!	!	!	!	!	!	!	!	!	!	!	!
4.cc#/	4.a\	p	4.c#/	4.A\	p	2.dd/	2.g\	p	2.r	2.r	.	2.r	.	4.cc#\	p	(8a/L	p	4.a\	p	4A\	p
.	.	.	.	.	.	.	.	.	.	.	.	.	.	.	.	8e/	.	.	.	.	.
.	.	.	.	.	.	.	.	.	.	.	.	.	.	.	.	8c#/	.	.	.	4AA/	.
8dd/	8b\	.	8d/	8B\	.	.	.	.	.	.	.	.	.	8dd\	.	8e/	.	8b\	.	.	.
4ee/	4cc#\	.	4e/	4c#\	.	.	.	.	.	.	.	.	.	4ee\	.	8a/	.	4cc#\	.	4r	.
.	.	.	.	.	.	.	.	.	.	.	.	.	.	.	.	8cc#/J)	.	.	.	.	.
=26	=26	=26	=26	=26	=26	=26	=26	=26	=26	=26	=26	=26	=26	=26	=26	=26	=26	=26	=26	=26	=26
*v	*v	*	*	*	*	*	*	*	*	*	*	*	*	*	*	*	*	*	*	*	*
! 32eeP 32cc#P/	!	!	!	!	!	!	!	!	!	!	!	!	! 32eeP/	!	!	!	! 32cc#P/	!	!	!
!	!	!	!	!	!	!	!	!	!	!	!	!	!	!	!	!	!	!	!	!
*	*	*v	*v	*	*	*	*	*	*	*	*	*	*	*	*	*	*	*	*	*
!	!	! 32eP 32c#P/	!	!	!	!	!	!	!	!	!	!	!	!	!	!	!	!	!
!	!	!	!	!	!	!	!	!	!	!	!	!	!	!	!	!	!	!	!
4dd'\ 4bp\	.	4dp'\ 4Bp\	.	4dd/	4dd\	.	2.r	2.r	.	2.r	.	4ddp'\	.	(8b/L	.	4bp'\	.	4E\	.
.	.	.	.	.	.	.	.	.	.	.	.	.	.	8g#/	.	.	.	.	.
4cc#'\ 4a\	.	4c#'\ 4A\	.	4dd/	4dd\	.	.	.	.	.	.	4cc#'\	.	8a/	.	4a'\	.	4E\	.
.	.	.	.	.	.	.	.	.	.	.	.	.	.	8c#/	.	.	.	.	.
4b/ 4g#'/	.	4B'\ 4E\	.	4dd/	4dd\	.	.	.	.	.	.	4b'\	.	8d/	.	4e'\	.	4E\	.
.	.	.	.	.	.	.	.	.	.	.	.	.	.	8B/J)	.	.	.	.	.
=27	=27	=27	=27	=27	=27	=27	=27	=27	=27	=27	=27	=27	=27	=27	=27	=27	=27	=27	=27
*^	*	*^	*	*	*	*	*	*	*	*	*	*	*	*	*	*	*	*	*
(2.a/	(2.a\	.	(2.A/	(2.C#\	.	2.dd/	2.g\	.	2.r	2.r	.	2.r	.	(2.a/	.	(8c#/L	.	(2.c#\	.	(4A\	.
.	.	.	.	.	.	.	.	.	.	.	.	.	.	.	.	8A/)	.	.	.	.	.
.	.	.	.	.	.	.	.	.	.	.	.	.	.	.	.	(8d#z/	z	.	.	4E\	.
.	.	.	.	.	.	.	.	.	.	.	.	.	.	.	.	8e/	.	.	.	.	.
.	.	.	.	.	.	.	.	.	.	.	.	.	.	.	.	8c#/	.	.	.	4A\)	.
.	.	.	.	.	.	.	.	.	.	.	.	.	.	.	.	8A/J)	.	.	.	.	.
=28	=28	=28	=28	=28	=28	=28	=28	=28	=28	=28	=28	=28	=28	=28	=28	=28	=28	=28	=28	=28	=28
2.b/)	2.g#\)	.	2.B/)	2.E\)	.	2.dd/	2.cc\	.	2.r	2.r	.	2.r	.	2.b\)	.	(8dn/L	.	2.e\)	.	(4G#\	.
.	.	.	.	.	.	.	.	.	.	.	.	.	.	.	.	8B/)	.	.	.	.	.
.	.	.	.	.	.	.	.	.	.	.	.	.	.	.	.	(8d#z/	z	.	.	4E\	.
.	.	.	.	.	.	.	.	.	.	.	.	.	.	.	.	8e/	.	.	.	.	.
.	.	.	.	.	.	.	.	.	.	.	.	.	.	.	.	8dn/	.	.	.	4G#\)	.
.	.	.	.	.	.	.	.	.	.	.	.	.	.	.	.	8B/J)	.	.	.	.	.
=29	=29	=29	=29	=29	=29	=29	=29	=29	=29	=29	=29	=29	=29	=29	=29	=29	=29	=29	=29	=29	=29
4.cc#/	4.a\	.	4.c#/	4.A\	.	2.dd/	2.g\	.	2.r	2.r	.	2.r	.	4.cc#\	.	(8c#/L	.	4.a\	.	4A\	.
.	.	.	.	.	.	.	.	.	.	.	.	.	.	.	.	8e/)	.	.	.	.	.
.	.	.	.	.	.	.	.	.	.	.	.	.	.	.	.	8a/	.	.	.	4E\	.
8dd/	8b\	.	8d/	8B\	.	.	.	.	.	.	.	.	.	8dd\	.	8a/	.	8b\	.	.	.
4ee/	4cc#\	.	4e/	4c#\	.	.	.	.	.	.	.	.	.	4ee\	.	8a/	.	4cc#\	.	4C#/	.
.	.	.	.	.	.	.	.	.	.	.	.	.	.	.	.	8a/J	.	.	.	.	.
=30	=30	=30	=30	=30	=30	=30	=30	=30	=30	=30	=30	=30	=30	=30	=30	=30	=30	=30	=30	=30	=30
*v	*v	*	*	*	*	*	*	*	*	*	*	*	*	*	*	*	*	*	*	*	*
! 32eeP 32cc#P/	!	!	!	!	!	!	!	!	!	!	!	!	! 32eeP/	!	!	!	! 32cc#P/	!	!	!
!	!	!	!	!	!	!	!	!	!	!	!	!	!	!	!	!	!	!	!	!
*	*	*v	*v	*	*	*	*	*	*	*	*	*	*	*	*	*	*	*	*	*
!	!	! 32eP 32c#P/	!	!	!	!	!	!	!	!	!	!	!	!	!	!	!	!	!
!	!	!	!	!	!	!	!	!	!	!	!	!	!	!	!	!	!	!	!
4ddp'\ 4bp\	.	4dp'\ 4Bp\	.	4ee\ 4cc\	4ryy	.	2.r	2.r	.	2.r	.	4ddp'\	.	(8f#/L	.	4bp'\	.	4D\	.
.	.	.	.	.	.	.	.	.	.	.	.	.	.	8d/	.	.	.	.	.
4cc#'\ 4a\	.	4c#'\ 4A\	.	4dd/	4dd\	.	.	.	.	.	.	4cc#'\	.	8c#/	.	4a'\	.	4E\	.
.	.	.	.	.	.	.	.	.	.	.	.	.	.	8e/	.	.	.	.	.
4b/ 4g#'/	.	4B'\ 4E\	.	4dd/	4dd\	.	.	.	.	.	.	4b'\	.	8d/	.	4e'\	.	4E\	.
.	.	.	.	.	.	.	.	.	.	.	.	.	.	8e/J)	.	.	.	.	.
=31	=31	=31	=31	=31	=31	=31	=31	=31	=31	=31	=31	=31	=31	=31	=31	=31	=31	=31	=31
*^	*	*^	*	*	*	*	*	*	*	*	*	*	*	*	*	*	*	*	*
4a/	4a\	.	4.A/	4.C#\	.	4dd/	4g\	.	2.r	2.r	.	2.r	.	4.a/	.	(8c#/L	.	4.c#\	.	4A\	.
.	.	.	.	.	.	.	.	.	.	.	.	.	.	.	.	8A/	.	.	.	.	.
8r	8r	.	.	.	.	8r	8r	.	.	.	.	.	.	.	.	8c#/	.	.	.	4C#/	.
8aa'/L	8cc#\L	.	8c#'/L	8E\L	.	8dd'/L	8g\L	.	.	.	.	.	.	8cc#'\L	.	8e/	.	8e'\L	.	.	.
8aa'/	8cc#\	.	8A'/	8C#\	.	8dd'/	8g\	.	.	.	.	.	.	8a'\	.	8a/	.	8c#'\	.	4E\	.
8aa'/J	8cc#\J	.	8c#'/J	8E\J	.	8dd'/J	8g\J	.	.	.	.	.	.	8cc#'\J	.	8e/J)	.	8e'\J	.	.	.
=32	=32	=32	=32	=32	=32	=32	=32	=32	=32	=32	=32	=32	=32	=32	=32	=32	=32	=32	=32	=32	=32
4aa/	4cc#\	.	4A/	4C#\	.	4dd/	4g\	.	2.r	2.r	.	2.r	.	4a/	.	4c#/	.	4c#\	.	4AA/	.
4r	4r	.	4r	4r	.	4r	4r	.	.	.	.	.	.	4r	.	4r	.	4r	.	4A\	.
4r	4r	.	4r	4r	.	4r	4r	.	.	.	.	.	.	4r	.	4r	.	4r	.	4r	.
=33:!!:	=33:!!:	=33:!!:	=33:!!:	=33:!!:	=33:!!:	=33:!!:	=33:!!:	=33:!!:	=33:!!:	=33:!!:	=33:!!:	=33:!!:	=33:!!:	=33:!!:	=33:!!:	=33:!!:	=33:!!:	=33:!!:	=33:!!:	=33:!!:	=33:!!:
*>D	*	*	*>D	*	*	*	*	*	*>D	*	*	*>D	*	*>D	*	*>D	*	*>D	*	*>D	*
*	*	*	*	*	*	*v	*v	*	*	*	*	*	*	*	*	*	*	*	*	*	*
*	*	*	*	*	*	*>D	*	*	*	*	*	*	*	*	*	*	*	*	*	*
!	!	!	!	!	!	! a 2	!	!	!	!	!	!	!	!	!	!	!	!	!	!
!	!	!	!	!	!	!	!	!	!	!	!	!	!	!	!	!	!	!	!	!
2.r	2.r	.	2.r	2.r	.	[2.dd\	p	2.r	2.r	.	2.r	.	4b'\	.	4g#'/	.	4d'\	.	[2.E\	.
.	.	.	.	.	.	.	.	.	.	.	.	.	(4b\	.	(4g#/	.	(4d\	.	.	.
.	.	.	.	.	.	.	.	.	.	.	.	.	4cc#\)	.	4a/)	.	4c#\)	.	.	.
=34	=34	=34	=34	=34	=34	=34	=34	=34	=34	=34	=34	=34	=34	=34	=34	=34	=34	=34	=34	=34
!	!	!	!	!	!	! cresc.	!	!	!	!	!	!	!	!	!	!	!	!	!	!
2.r	2.r	.	2.r	2.r	.	4dd\]	.	2.r	2.r	.	2.r	.	(4eez\	z	(4cc#z\	z	(4A#z/	z	4Ez\]	z
.	.	.	.	.	.	4dd\	.	.	.	.	.	.	4dd\)	.	4b\)	.	4B/)	.	4G#\	p
.	.	.	.	.	.	4dd\	.	.	.	.	.	.	8.r	.	8.r	.	8.r	.	4E\	.
.	.	.	.	.	.	.	.	.	.	.	.	.	16b\	p	16g#/	p	16d\	p	.	.
=35	=35	=35	=35	=35	=35	=35	=35	=35	=35	=35	=35	=35	=35	=35	=35	=35	=35	=35	=35	=35
*v	*v	*	*	*	*	*^	*	*	*	*	*	*	*	*	*	*	*	*	*	*
! a 2	!	!	!	!	!	!	!	!	!	!	!	!	!	!	!	!	!	!	!	!
!	!	!	!	!	!	!	!	!	!	!	!	!	!	!	!	!	!	!	!	!
[2.a/	p	2.r	2.r	.	2.r	2.r	.	2.r	2.r	.	2.r	.	4cc#'\	.	4a'/	.	4c#\	.	4A\	.
.	.	.	.	.	.	.	.	.	.	.	.	.	(4cc#\	.	(4a/	.	(4c#/ 4A/	.	4A\	.
.	.	.	.	.	.	.	.	.	.	.	.	.	4dd\)	.	4b\)	.	4d/ 4B/)	.	4A\	.
=36	=36	=36	=36	=36	=36	=36	=36	=36	=36	=36	=36	=36	=36	=36	=36	=36	=36	=36	=36	=36
! cresc.	!	!	!	!	!	!	!	!	!	!	!	!	! cresc.	!	! cresc.	!	! cresc.	!	! cresc.	!
4a/]	.	2.r	2.r	.	2.r	2.r	.	2.r	2.r	.	2.r	.	(8dd#\L	.	(8b#\L	.	(8d#\ 8B#\L	.	2A\	.
.	.	.	.	.	.	.	.	.	.	.	.	.	8ee\	.	8cc#\	.	8e\ 8c#\	.	.	.
4a/	.	.	.	.	.	.	.	.	.	.	.	.	8ff#\	.	8dd\	.	8f#\ 8d\	.	.	.
.	.	.	.	.	.	.	.	.	.	.	.	.	8ee\	.	8cc#\	.	8e\ 8c#\	.	.	.
4a/	.	.	.	.	.	.	.	.	.	.	.	.	8ddn\	.	8bn\	.	8dn\ 8Bn\	.	4AA/	.
.	.	.	.	.	.	.	.	.	.	.	.	.	8cc#\J)	.	8a\J)	.	8c#\ 8A\J)	.	.	.
=37	=37	=37	=37	=37	=37	=37	=37	=37	=37	=37	=37	=37	=37	=37	=37	=37	=37	=37	=37	=37
*	*	*	*	*	*v	*v	*	*	*	*	*	*	*	*	*	*	*	*	*	*
[2.ee\	p	[2.E/	[2.E\	p	[2.dd\	p	2.r	2.r	.	2.r	.	4b'\	p	4g#'/	p	4B/ 4G#'/	p	[2.E\	p
.	.	.	.	.	.	.	.	.	.	.	.	(4b\	.	(4g#/	.	(4B/ 4G#/	.	.	.
.	.	.	.	.	.	.	.	.	.	.	.	4cc#\)	.	4a/)	.	4c#/ 4A/)	.	.	.
=38	=38	=38	=38	=38	=38	=38	=38	=38	=38	=38	=38	=38	=38	=38	=38	=38	=38	=38	=38
4ee\]	.	4E/]	4E\]	.	4dd\]	.	2.r	2.r	.	2.r	.	(8ee\L	.	(8cc#\L	.	(8e\ 8c#\L	.	4E\]	.
.	.	.	.	.	.	.	.	.	.	.	.	8dd#\J)	.	8b#\J)	.	8d#\ 8B#\J)	.	.	.
4ee\	.	4E/	4E\	.	4dd\	.	.	.	.	.	.	4ddn\	.	4bn\	.	4dn\ 4Bn\	.	4G#\	.
4ee\	.	4E/	4E\	.	4dd\	.	.	.	.	.	.	8r	.	8r	.	8r	.	4E\	.
.	.	.	.	.	.	.	.	.	.	.	.	8b\	.	8g#/	.	8B/ 8G#/	.	.	.
=39	=39	=39	=39	=39	=39	=39	=39	=39	=39	=39	=39	=39	=39	=39	=39	=39	=39	=39	=39
[2.ee\	.	[2.E/	2.E\	.	[2.dd\	.	2.r	2.r	.	2.r	.	(8cc#\L	.	(8a\L	.	(8c#\ 8A\L	.	(4A\	.
.	.	.	.	.	.	.	.	.	.	.	.	8ee\)	.	8cc#\)	.	8e\ 8c#\)	.	.	.
.	.	.	.	.	.	.	.	.	.	.	.	(8ee\	.	(8cc#\	.	(8e\ 8c#\	.	4G#\	.
.	.	.	.	.	.	.	.	.	.	.	.	8dd\)	.	8b\)	.	8d\ 8B\)	.	.	.
.	.	.	.	.	.	.	.	.	.	.	.	(8dd\	.	(8b\	.	(8d\ 8B\	.	4A\)	.
.	.	.	.	.	.	.	.	.	.	.	.	8cc#\J)	.	8a\J)	.	8c#\ 8A\J)	.	.	.
=40	=40	=40	=40	=40	=40	=40	=40	=40	=40	=40	=40	=40	=40	=40	=40	=40	=40	=40	=40
2.ee\_	.	2.E/_	[2.EE\	.	2.dd\_	.	2.r	2.r	.	2.r	.	4b\	.	4g#/	.	8B\ 8G#\L	.	4E\	.
.	.	.	.	.	.	.	.	.	.	.	.	.	.	.	.	8e\	.	.	.
.	.	.	.	.	.	.	.	.	.	.	.	4r	.	4r	.	8e\	.	4r	.
.	.	.	.	.	.	.	.	.	.	.	.	.	.	.	.	8e\J	.	.	.
.	.	.	.	.	.	.	.	.	.	.	.	(8.ee\L	.	(8.cc#\L	.	[4e\	.	4r	.
.	.	.	.	.	.	.	.	.	.	.	.	16cc#\Jk)	.	16a\Jk)	.	.	.	.	.
=41	=41	=41	=41	=41	=41	=41	=41	=41	=41	=41	=41	=41	=41	=41	=41	=41	=41	=41	=41
2.ee\_	.	2.E/_	2.EE\_	.	2.dd\_	.	2.r	2.r	.	2.r	.	4b\	.	4g#/	.	8e\L]	.	4E\	.
.	.	.	.	.	.	.	.	.	.	.	.	.	.	.	.	8e\	.	.	.
.	.	.	.	.	.	.	.	.	.	.	.	4r	.	4r	.	8e\	.	4r	.
.	.	.	.	.	.	.	.	.	.	.	.	.	.	.	.	8e\J	.	.	.
.	.	.	.	.	.	.	.	.	.	.	.	(8.ee\L	.	(8.cc#\L	.	[4e\	.	4r	.
.	.	.	.	.	.	.	.	.	.	.	.	16cc#\Jk)	.	16a\Jk)	.	.	.	.	.
=42	=42	=42	=42	=42	=42	=42	=42	=42	=42	=42	=42	=42	=42	=42	=42	=42	=42	=42	=42
2.ee\_	.	2.E/_	2.EE\_	.	2.dd\_	.	2.r	2.r	.	2.r	.	4b\	.	4g#/	.	8e\L]	.	4E\	.
.	.	.	.	.	.	.	.	.	.	.	.	.	.	.	.	8e\	.	.	.
.	.	.	.	.	.	.	.	.	.	.	.	4b\	.	4g#/	.	8e\	.	4r	.
.	.	.	.	.	.	.	.	.	.	.	.	.	.	.	.	8e\	.	.	.
.	.	.	.	.	.	.	.	.	.	.	.	8.ee\L	.	8.cc#\L	.	8e\	.	4r	.
.	.	.	.	.	.	.	.	.	.	.	.	.	.	.	.	8e\J	.	.	.
.	.	.	.	.	.	.	.	.	.	.	.	16cc#\Jk	.	16a\Jk	.	.	.	.	.
=43	=43	=43	=43	=43	=43	=43	=43	=43	=43	=43	=43	=43	=43	=43	=43	=43	=43	=43	=43
!	!	!	!	!	!	!	!	!	!	!	!	! cresc.	!	!	!	!	!	!	!
4ee\]	.	4E/]	4EE\]	.	4dd\]	.	2.r	2.r	.	2.r	.	(2.b\	.	4g#/	.	4e\	.	4E\	.
4r	.	4r	4r	.	4r	.	.	.	.	.	.	.	.	4r	.	4r	.	4r	.
4r	.	4r	4r	.	4r	.	.	.	.	.	.	.	.	4r	.	4r	.	4r	.
=44	=44	=44	=44	=44	=44	=44	=44	=44	=44	=44	=44	=44	=44	=44	=44	=44	=44	=44	=44
*^	*	*	*	*	*^	*	*	*	*	*	*	*	*	*	*	*	*	*	*
2.r	2.r	.	2.r	2.r	.	2.r	2.r	.	2.r	2.r	.	2.r	.	2.b#\)	.	2.r	.	2.r	.	2.r	.
=45	=45	=45	=45	=45	=45	=45	=45	=45	=45	=45	=45	=45	=45	=45	=45	=45	=45	=45	=45	=45	=45
4.cc#/	4.a\	p	4.c#/	4.A\	p	2.dd/	2.g\	p	2.r	2.r	.	2.r	.	4.cc#\xx	p	(8a/L	p	4.a\	p	4A\	p
.	.	.	.	.	.	.	.	.	.	.	.	.	.	.	.	8e/	.	.	.	.	.
.	.	.	.	.	.	.	.	.	.	.	.	.	.	.	.	8c#/	.	.	.	4AA/	.
8dd/	8b\	.	8d/	8B\	.	.	.	.	.	.	.	.	.	8dd\	.	8e/	.	8b\	.	.	.
4ee/	4cc#\	.	4e/	4c#\	.	.	.	.	.	.	.	.	.	4ee\	.	8a/	.	4cc#\	.	4r	.
.	.	.	.	.	.	.	.	.	.	.	.	.	.	.	.	8cc#/J)	.	.	.	.	.
=46	=46	=46	=46	=46	=46	=46	=46	=46	=46	=46	=46	=46	=46	=46	=46	=46	=46	=46	=46	=46	=46
*v	*v	*	*	*	*	*	*	*	*	*	*	*	*	*	*	*	*	*	*	*	*
! 32eeP 32cc#P/	!	!	!	!	!	!	!	!	!	!	!	!	! 32eeP/	!	!	!	! 32cc#P/	!	!	!
!	!	!	!	!	!	!	!	!	!	!	!	!	!	!	!	!	!	!	!	!
*	*	*v	*v	*	*	*	*	*	*	*	*	*	*	*	*	*	*	*	*	*
!	!	! 32eP 32c#P/	!	!	!	!	!	!	!	!	!	!	!	!	!	!	!	!	!
!	!	!	!	!	!	!	!	!	!	!	!	!	!	!	!	!	!	!	!
4ddp'\ 4bp\	.	4dp'\ 4Bp\	.	4dd/	4dd\	.	2.r	2.r	.	2.r	.	4ddp'\	.	(8b/L	.	4bp'\	.	4E\	.
.	.	.	.	.	.	.	.	.	.	.	.	.	.	8g#/	.	.	.	.	.
4cc#'\ 4a\	.	4c#'\ 4A\	.	4dd/	4dd\	.	.	.	.	.	.	4cc#'\	.	8a/	.	4a'\	.	4E\	.
.	.	.	.	.	.	.	.	.	.	.	.	.	.	8c#/	.	.	.	.	.
4b/ 4g#'/	.	4B'\ 4E\	.	4dd/	4dd\	.	.	.	.	.	.	4b'\	.	8d/	.	4e'\	.	4E\	.
.	.	.	.	.	.	.	.	.	.	.	.	.	.	8B/J)	.	.	.	.	.
=47	=47	=47	=47	=47	=47	=47	=47	=47	=47	=47	=47	=47	=47	=47	=47	=47	=47	=47	=47
*^	*	*^	*	*	*	*	*	*	*	*	*	*	*	*	*	*	*	*	*
(2.a/	(2.a\	.	(2.A/	(2.C#\	.	2.dd/	2.g\	.	2.r	2.r	.	2.r	.	(2.a/	.	(8c#/L	.	(2.c#\	.	(4A\	.
.	.	.	.	.	.	.	.	.	.	.	.	.	.	.	.	8A/)	.	.	.	.	.
.	.	.	.	.	.	.	.	.	.	.	.	.	.	.	.	(8d#z/	z	.	.	4E\	.
.	.	.	.	.	.	.	.	.	.	.	.	.	.	.	.	8e/	.	.	.	.	.
.	.	.	.	.	.	.	.	.	.	.	.	.	.	.	.	8c#/	.	.	.	4A\)	.
.	.	.	.	.	.	.	.	.	.	.	.	.	.	.	.	8A/J)	.	.	.	.	.
=48	=48	=48	=48	=48	=48	=48	=48	=48	=48	=48	=48	=48	=48	=48	=48	=48	=48	=48	=48	=48	=48
2.b/)	2.g#\)	.	2.B/)	2.E\)	.	2.dd/	2.cc\	.	2.r	2.r	.	2.r	.	2.b\)	.	(8dn/L	.	2.e\)	.	(4G#\	.
.	.	.	.	.	.	.	.	.	.	.	.	.	.	.	.	8B/)	.	.	.	.	.
.	.	.	.	.	.	.	.	.	.	.	.	.	.	.	.	(8d#z/	z	.	.	4E\	.
.	.	.	.	.	.	.	.	.	.	.	.	.	.	.	.	8e/	.	.	.	.	.
.	.	.	.	.	.	.	.	.	.	.	.	.	.	.	.	8dn/	.	.	.	4G#\)	.
.	.	.	.	.	.	.	.	.	.	.	.	.	.	.	.	8B/J)	.	.	.	.	.
=49	=49	=49	=49	=49	=49	=49	=49	=49	=49	=49	=49	=49	=49	=49	=49	=49	=49	=49	=49	=49	=49
4.cc#/	4.a\	.	4.c#/	4.A\	.	2.dd/	2.g\	.	2.r	2.r	.	2.r	.	4.cc#\	.	(8c#/L	.	4.a\	.	4A\	.
.	.	.	.	.	.	.	.	.	.	.	.	.	.	.	.	8e/)	.	.	.	.	.
.	.	.	.	.	.	.	.	.	.	.	.	.	.	.	.	8a/	.	.	.	4E\	.
8dd/	8b\	.	8d/	8B\	.	.	.	.	.	.	.	.	.	8dd\	.	8a/	.	8b\	.	.	.
4ee/	4cc#\	.	4e/	4c#\	.	.	.	.	.	.	.	.	.	4ee\	.	8a/	.	4cc#\	.	4C#/	.
.	.	.	.	.	.	.	.	.	.	.	.	.	.	.	.	8a/J	.	.	.	.	.
=50	=50	=50	=50	=50	=50	=50	=50	=50	=50	=50	=50	=50	=50	=50	=50	=50	=50	=50	=50	=50	=50
*v	*v	*	*	*	*	*	*	*	*	*	*	*	*	*	*	*	*	*	*	*	*
! 32eeP 32cc#P/	!	!	!	!	!	!	!	!	!	!	!	!	! 32eeP/	!	!	!	! 32cc#P/	!	!	!
!	!	!	!	!	!	!	!	!	!	!	!	!	!	!	!	!	!	!	!	!
*	*	*v	*v	*	*	*	*	*	*	*	*	*	*	*	*	*	*	*	*	*
!	!	! 32eP 32c#P/	!	!	!	!	!	!	!	!	!	!	!	!	!	!	!	!	!
!	!	!	!	!	!	!	!	!	!	!	!	!	!	!	!	!	!	!	!
4ddp'\ 4bp\	.	4dp'\ 4Bp\	.	4ee\ 4cc\	4ryy	.	2.r	2.r	.	2.r	.	4ddp'\	.	(8f#/L	.	4bp'\	.	4D\	.
.	.	.	.	.	.	.	.	.	.	.	.	.	.	8d/	.	.	.	.	.
4cc#'\ 4a\	.	4c#'\ 4A\	.	4dd/	4dd\	.	.	.	.	.	.	4cc#'\	.	8c#/	.	4a'\	.	4E\	.
.	.	.	.	.	.	.	.	.	.	.	.	.	.	8e/	.	.	.	.	.
4b/ 4g#'/	.	4B'\ 4E\	.	4dd/	4dd\	.	.	.	.	.	.	4b'\	.	8d/	.	4e'\	.	4E\	.
.	.	.	.	.	.	.	.	.	.	.	.	.	.	8e/J)	.	.	.	.	.
=51	=51	=51	=51	=51	=51	=51	=51	=51	=51	=51	=51	=51	=51	=51	=51	=51	=51	=51	=51
*^	*	*^	*	*	*	*	*	*	*	*	*	*	*	*	*	*	*	*	*
4a/	4a\	.	4.A/	4.C#\	.	4dd/	4g\	.	2.r	2.r	.	2.r	.	4.a/	.	(8c#/L	.	4.c#\	.	4A\	.
.	.	.	.	.	.	.	.	.	.	.	.	.	.	.	.	8A/	.	.	.	.	.
8r	8r	.	.	.	.	8r	8r	.	.	.	.	.	.	.	.	8c#/	.	.	.	4C#/	.
8aa'/L	8cc#\L	.	8c#'/L	8E\L	.	8dd'/L	8g\L	.	.	.	.	.	.	8cc#'\L	.	8e/	.	8e'\L	.	.	.
8aa'/	8cc#\	.	8A'/	8C#\	.	8dd'/	8g\	.	.	.	.	.	.	8a'\	.	8a/	.	8c#'\	.	4E\	.
8aa'/J	8cc#\J	.	8c#'/J	8E\J	.	8dd'/J	8g\J	.	.	.	.	.	.	8cc#'\J	.	8e/J)	.	8e'\J	.	.	.
=52	=52	=52	=52	=52	=52	=52	=52	=52	=52	=52	=52	=52	=52	=52	=52	=52	=52	=52	=52	=52	=52
4aa/	4cc#\	.	4A/	4C#\	.	4dd/	4g\	.	2.r	2.r	.	2.r	.	4a/	.	4c#/	.	4c#\	.	4AA/	.
4r	4r	.	4r	4r	.	4r	4r	.	.	.	.	.	.	4r	.	4r	.	4r	.	4r	.
4r	4r	.	4r	4r	.	4r	4r	.	.	.	.	.	.	4r	.	4r	.	4r	.	4r	.
!	! Menuetto da Capo	!	!	! Menuetto da Capo	!	!	! Menuetto da Capo	!	!	! Menuetto da Capo	!	! Menuetto da Capo	!	! Menuetto da Capo	!	! Menuetto da Capo	!	! Menuetto da Capo	!	! Menuetto da Capo	!
==:|!	==:|!	==:|!	==:|!	==:|!	==:|!	==:|!	==:|!	==:|!	==:|!	==:|!	==:|!	==:|!	==:|!	==:|!	==:|!	==:|!	==:|!	==:|!	==:|!	==:|!	==:|!
*-	*-	*-	*-	*-	*-	*-	*-	*-	*-	*-	*-	*	*	*	*	*	*	*	*	*	*
*>E	*	*>E	*	*>E	*	*>E	*	*>E	*
*-	*-	*-	*-	*-	*-	*-	*-	*-	*-
!!!RWG: Appoggiaturas of spine 'Oboi' need manual editing in measures: 26, 30, 30, 46, 46, 50, 50
!!!RWG: Appoggiaturas of spine 'Fagotti' need manual editing in measures: 26, 26, 30, 30, 46, 46, 50, 50
!!!RWG: Appoggiaturas of spine 'Violino 1' need manual editing in measures: 5, 21, 26, 30, 46, 50
!!!RWG: Appoggiaturas of spine 'Viola' need manual editing in measures: 26, 30, 46, 50
!!!RWG: Key is interpreted using the Humdrum key tool.
!!!OPT: Haffner
!!!AFT: stage2
!!!END: 1994/03/14
!!format changes:
!!content changes:
!!public access: complete
!!!KEY: 478000104
!!!EMD: Converted from MuseData to Humdrum Dec 16, 2000, by Andreas Kornstaedt using muse2kern.
